assets/icons/qvision/mp.svg

<svg xmlns="http://www.w3.org/2000/svg" height="24" viewBox="0 0 24 24" width="24"><path d="M0 0h24v24H0V0z" fill="none"/><path d="M19 3H5c-1.1 0-2 .9-2 2v14c0 1.1.9 2 2 2h14c1.1 0 2-.9 2-2V5c0-1.1-.9-2-2-2zM6.5 9H11c.55 0 1 .45 1 1v5h-1.5v-4.5h-1v3H8v-3H7V15H5.5v-5c0-.55.45-1 1-1zm9 6H14V9h3.5c.55 0 1 .45 1 1v2.5c0 .55-.45 1-1 1h-2V15zm0-3H17v-1.5h-1.5V12z"/></svg>

<svg width="24" height="24" viewBox="0 0 24 24" fill="none" xmlns="http://www.w3.org/2000/svg">
<g clip-path="url(#clip0_147_3605)">
<path d="M19 3H5C3.9 3 3 3.9 3 5V19C3 20.1 3.9 21 5 21H19C20.1 21 21 20.1 21 19V5C21 3.9 20.1 3 19 3ZM6.5 9H11C11.55 9 12 9.45 12 10V15H10.5V10.5H9.5V13.5H8V10.5H7V15H5.5V10C5.5 9.45 5.95 9 6.5 9ZM15.5 15H14V9H17.5C18.05 9 18.5 9.45 18.5 10V12.5C18.5 13.05 18.05 13.5 17.5 13.5H15.5V15ZM15.5 12H17V10.5H15.5V12Z" fill="#323232"/>
</g>
<defs>
<clipPath id="clip0_147_3605">
<rect width="24" height="24" fill="white"/>
</clipPath>
</defs>
</svg>
